X:1
T:Ecce sacerdos magnus - Victoria
T:James Gibb editions
T:#
%%score [ 1 2 3 4 ]
L:1/8
Q:1/4=216
M:none
K:C
V:1 treble nm="Soprano" snm="S"
V:2 treble nm="Alto" snm="A"
V:3 treble-8 nm="Tenor" snm="T"
V:4 bass nm="Bass" snm="B"
V:1
"^Ecce sacerdos magnus""^Tomás Luis de Victoria\n(1548-1611)" d16 | d8 B8 | d8 e8 | (d6 cB c4 B4- | %4
w: Ec-|ce sa-|cer- dos|ma\- * * * *|
 B4 A2 G2 A8) | B4 d4 d8 | B4 (d6 c2 c4- | c4) B4 (c8- | c4 B2 A2 B8) | A8 (d6 c2 | B4 A2 G2 A8) | %11
w: |gnus, ec- ce|sa- cer\- * *|* dos ma\-||gnus, ma\- *||
 G4 d4 d8 | B8 d8 | e8 d8- | d8 d8 | z4 d4 d4 d4 | (g6 f2 e4) d4 | (c4 B4 e4) d4 | z4 G4 G4 G4 | %19
w: gnus, ec- ce|sa- cer-|dos ma\-|* gnus,|qui in di-|e\- * * bus|su\- * * is,|qui in di-|
 c4 B4 (A6 G2 | A2 B2 c4) B8 | z4 G4 G4 G4 | (c6 B2 A4) G4 | A8 G4 g4- | g4 e4 e8- | e8 f8- | %26
w: e- bus su\- *|* * * is,|qui in di-|e\- * * bus|su- is pla\-|* cu- it,|* pla\-|
 f4 e4 e8- | e8 d8- | d8 d8- | d8 z4 d4- | d4 ^c4 d8 | =c4 B4 (A2 B2 c2 d2 | e2 d2 e2 f2 g6 f2 | %33
w: * cu- it|* De\-|* o:|* et|* in- ven-|tus est ju\- * * *||
 e4 c4) d8 | z4 g8 ^f4 | g8 =f4 e4 | d8 A4 f4- | f4 e4 f8 | e4 d4 c6 d2 | e4 d4 e8 | %40
w: * * stus,|et in-|ven- tus est|ju- stus, et|* in- ven-|tus est ju\- *||
 d6 c2 B4 A2 G2 | A8 B8- | B8 z4[Q:1/4=213] c4- | %43
w: |* stus,|* et|
[Q:1/4=209] c4[Q:1/4=205] B4[Q:1/4=201] A4[Q:1/4=197] G4 | %44
w: * in- ven- tus|
[Q:1/4=193] ^F4[Q:1/4=187] (G8[Q:1/4=181] F4) |[Q:1/4=180] G16 |] %46
w: est ju\- *|stus.|
V:2
 z16 | G16 | G8 E8 | G8 A4 (G4- | G4 ^F2 E2 F8) | G8 z8 | G16 | G8 E8 | G8 D4 (G4- | %9
w: |Ec-|ce sa-|cer- dos ma\-||gnus,|ec-|ce sa-|cer- dos ma\-|
 G4 ^F2 E2 F2 G2 A4- | A2 G2 G8 ^F4) | G4 D4 B,4 G,4 | G4 G4 (A6 B2 | c8 B4 A2 G2 | A8) B8- | B16 | %16
w: ||gnus, ec- ce sa-|cer- dos ma\- *||* gnus,||
 z8 G8- | G8 G8- | G8 E8- | E8 (F8- | F8 G8- | G8 E8- | E8 C8- | C8 C8 | z8 c8- | c4 A4 A4 A4- | %26
w: qui|* in|* di\-|* e\-||* bus|* su\-|* is|pla\-|* cu- it, pla\-|
 A4 G4 G8 | A4 G8 ^F2 E2 | ^F8) G4 B4- | B4 A4 B8 | A4 G4 (A8- | A4 ^G4) A8 | z4 c8 B4 | c8 B4 A4 | %34
w: * cu- it|De\- * * *|* o: et|* in- ven-|tus est ju\-|* * stus|et in-|ven- tus est|
 (G6 A2 _B4 A4 | _B4 A2 G2 A2 F2 G4) | A4 (D2 E2 F2 G2 A2 B2 | c6 B2 A4 F4) | G8 z4 c4- | %39
w: ju\- * * *||stus, ju\- * * * * *||stus, et|
 c4 B4 c8 | B4 A4 G8- | G4 ^F4 G4 (G,2 A,2 | B,2 C2 D2 E2 F8) | E4 D6 C2 C4 | D16 | D16 |] %46
w: * in- ven-|tus est ju\-|* * stus, et *||in- ven- tus est|ju-|stus.|
V:3
 z16 | z16 | z16 | z16 | d16 | d8 B8 | d8 e8 | (d4 e6 d2 c4) | d16- | d16 | z8 z4 d4 | d4 B8 d4 | %12
w: ||||Ec-|ce sa-|cer- dos|ma\- * * *|gnus,||ec-|ce sa- cer-|
 G4 (g8 ^f4 | g4 a6 g2 g4- | g4 ^f4) g4 d4 | d4 d4 (g6 f2 | e4 d4 (c4 B4 | e6 d2 c4 B2 A2 | %18
w: dos ma\- *||* * gnus, qui|in di- e *|* bus su\- *||
 B2 c2 d2 B2 c2 d2 e4- | e2 f2 g4) c8- | c8 z4 d4 | d4 d4 g2 f2 e2 d2 | c4) g4 (f4 g4) | c4 f8 e4 | %24
w: |* * * is,|* qui|in di- e\- * * *|* bus su\- *|is pla- cu-|
 e8 z4 e4- | e4 c4 c8 | c12 c4 | c8 A8- | A8 G4 g4- | g4 ^f4 g8 | =f4 e4 (d2 e2 f2 d2 | e8 e8 | %32
w: it, pla\-|* cu- it,|pla- cu-|it De\-|* o: et|* in- ven-|tus est ju\- * * *|* stus|
 z4 e8 d4 | c4 A4 B4 (d4- | d4 ^c4) d8 | g4 f2 e2 d4 e4) | f8 z4 a4- | a4 g4 f4 d4 | e4 (g8 ^f4 | %39
w: et in-|ven- tus est ju\-|* * stus,|ju\- * * * *|stus, et|* in- ven- tus|est ju\- *|
 g6 =f2 e4 c4 | d8 e8) | d8 z4 d4- | d4 B4 c4 A4 | (G2 A2 B2 G2 A4) (c4- | c4 B4 A8) | B16 |] %46
w: ||stus, et|* in- ven- tus|est * * * * ju\-||stus.|
V:4
 z16 | z16 | z16 | z16 | z16 | G,16 | G,8 E,8 | G,8 A,8 | G,8 G,8 | z8 D8- | D8 D8 | B,8 D8 | %12
w: |||||Ec-|ce sa-|cer- dos|ma- gnus,|ec\-|* ce|sa- cer-|
 E8 (D8 | C8 D8- | D8) G,8- | G,16 | G,8 z8 | z8 z4 G,4 | G,4 G,4 (C6 B,2 | A,4) G,4 (F,6 E,2 | %20
w: dos ma\-||* gnus,|||qui|in di- e\- *|* bus su\- *|
 F,2 G,2 A,4) G,8- | G,8 z4 C,4 | C,4 C,4 F,4 E,4 | F,8 C,8 | C12 A,4 | A,8 F,8- | F,4 C,4 C,8- | %27
w: * * * is,|* qui|in di- e- bus|su- is|pla- cu-|it, pla\-|* cu- it|
 C,8 D,8- | D,8 G,8 | z16 | z16 | z8 A,8- | A,8 G,8 | A,8 G,4 F,4 | E,8 D,8 | z16 | D16 | C8 D8 | %38
w: * De\-|* o:|||et|* in-|ven- tus est|ju- stus,||et|in- ven-|
 C4 B,4 A,8 | G,8 z8 | z16 | z8 G,8- | G,8 F,8 | G,8 F,4 E,4 | D,16 | G,16 |] %46
w: tus est ju-|stus,||et|* in-|ven- tus est|ju-|stus.|

